!!!OTL: Wuzhi xiaochuan
!!!ARE: Asia, China,ÿShandong, Yancheng
!! III, 368
!!!SCT: C1571
!!!YEM: Copyright 1995, estate of Helmut Schaffrath.
**kern
*ICvox
*Ivox
!! Mixed meters:  3/4; 2/4
*M2/4
*k[b-e-]
*B-:
{16ccc
16bb-
16ccc
16ddd
16fff
16ddd
8ccc
16ccc
16bb-
16gg
16r
=1
8.bb-
16ccc
8ddd
8ccc
=2
16ccc
16gg
4.bb-}
=3
{16dd
16dd
16dd
16ff
16gg
32ff
32gg
8bb-
=4
16bb-
16ccc
16ddd
16ccc
16fff
16ddd
16ccc
16r}
=5
{16ccc
16aa
16gg
16gg
16gg
16dd
8ff
=6
32gg
32bb-
16ff
16gg
16gg
4ff}
=7
{16gg
16bb-
16bb-
16bb-
16bb-
16ddd
8ccc
=8
16ccc
16aa
16gg
16ff
16gg
16dd
8ff
=9
16gg
16ff
16gg
32aa
32gg
4ff}
=10
{16ccc
16bb-
16ccc
16ddd
8ccc
8r}
=11
{16ddd
16ccc
16ddd
16bb-
8ccc
8r}
=12
{16.ccc
32bb-
16gg
16bb-
8ddd
8ccc}
=13
{16ddd
16ccc
16gg
16bb-
4ccc}
=14
{16ccc
16aa
16gg
16gg
16gg
16dd
8ff
=15
16gg
16ff
16gg
32bb-
32gg
4ff}
=16
{16.gg
32bb-
16bb-
16bb-
16bb-
16ddd
8ccc
=17
16ccc
16aa
16gg
16gg
16gg
16dd
8ff
=18
32gg
32bb-
16ff
16gg
32bb-
32gg
4ff}
=19
{16ddd
16ccc
16ddd
16ddd
8ccc
8r}
=20
{16ddd
16ddd
16ddd
16bb-
8ccc
8r}
=21
{16ccc
16ccc
16bb-
16ccc
16ddd
16ggg
8fff
=22
16ccc
16ddd
16ccc
16gg
4bb-}
=23
{16ccc
16aa
16gg
16gg
16gg
16dd
8ff
=24
32gg
32bb-
16ff
16gg
32bb-
32gg
4ff}
=25
{16.gg
32bb-
16bb-
16bb-
16bb-
16ddd
8ccc
=26
16ccc
16aa
16gg
16gg
16gg
16dd
8ff
=27
32gg
32bb-
16ff
16gg
16gg
4.ff
8r}
==
!!!AGN: Xiaodiao
!!!AMT: irregular
!!!AIN: vox
!!!EED: Helmut Schaffrath
!!!EEV: 1.0
*-
